styles/twemoji/1f1f2-1f1fb.svg

<svg xmlns="http://www.w3.org/2000/svg" viewBox="0 0 45 45"><defs><clipPath id="a"><path d="M4 31a4 4 0 0 1-4-4V9a4 4 0 0 1 4-4h28a4 4 0 0 1 4 4v18a4 4 0 0 1-4 4H4z"/></clipPath></defs><g clip-path="url(#a)" transform="matrix(1.25 0 0 -1.25 0 45)"><path d="M30 11H6v14h24V11zM0 5h36v26H0V5z" fill="#d21034"/><path d="M6 11h24v14H6V11z" fill="#007e3a"/><path d="M19.64 13.656c.279 0 .55.027.814.077a4.344 4.344 0 0 0 0 8.533 4.344 4.344 0 1 1-.814-8.61" fill="#fff"/></g></svg>

<?xml version="1.0" encoding="UTF-8" standalone="no"?><svg xmlns:dc="http://purl.org/dc/elements/1.1/" xmlns:cc="http://creativecommons.org/ns#" xmlns:rdf="http://www.w3.org/1999/02/22-rdf-syntax-ns#" xmlns:svg="http://www.w3.org/2000/svg" xmlns="http://www.w3.org/2000/svg" viewBox="0 0 45 45" style="enable-background:new 0 0 45 45;" xml:space="preserve" version="1.1" id="svg2"><metadata id="metadata8"><rdf:RDF><cc:Work rdf:about=""><dc:format>image/svg+xml</dc:format><dc:type rdf:resource="http://purl.org/dc/dcmitype/StillImage"/></cc:Work></rdf:RDF></metadata><defs id="defs6"><clipPath id="clipPath16" clipPathUnits="userSpaceOnUse"><path id="path18" d="M 4,31 C 1.791,31 0,29.209 0,27 L 0,27 0,9 C 0,6.791 1.791,5 4,5 l 0,0 28,0 c 2.209,0 4,1.791 4,4 l 0,0 0,18 c 0,2.209 -1.791,4 -4,4 l 0,0 -28,0 z"/></clipPath></defs><g transform="matrix(1.25,0,0,-1.25,0,45)" id="g10"><g id="g12"><g clip-path="url(#clipPath16)" id="g14"><path id="path20" style="fill:#d21034;fill-opacity:1;fill-rule:nonzero;stroke:none" d="M 30,11 6,11 6,25 30,25 30,11 Z M 0,5 36,5 36,31 0,31 0,5 Z"/><path id="path22" style="fill:#007e3a;fill-opacity:1;fill-rule:nonzero;stroke:none" d="M 6,11 30,11 30,25 6,25 6,11 Z"/><g transform="translate(19.6396,13.6562)" id="g24"><path id="path26" style="fill:#ffffff;fill-opacity:1;fill-rule:nonzero;stroke:none" d="m 0,0 c 0.279,0 0.551,0.027 0.814,0.077 -2.009,0.382 -3.529,2.146 -3.529,4.267 0,2.12 1.52,3.885 3.529,4.266 C 0.551,8.66 0.279,8.688 0,8.688 -2.399,8.688 -4.344,6.743 -4.344,4.344 -4.344,1.945 -2.399,0 0,0"/></g></g></g></g></svg>
